X:182
T: Es soll sich halt keiner mit die Lieb abgeben (3-20), S. 52
N: K1157
O: Luxemburg
S: KINTZELE, Guillaume: An der Ucht, Bd. 3 Luxemburg 1928]
R: Scherz-, Spottlied ber die Liebe]
M: 3/4
L: 1/16
K: G
D4 | G4G4A4 | _B4B4d3c | _B4A4A4 | A4G4
D4 | G4G4A4 | _B4B4d3c | _B4A4A4 | A4G4
G4 | _e4e4e4 | d4d4d2c2 | _B4B4B2c2 | _B4A4
d2c2 | _B4A4A4 | A4G4
d3c | _B4A4A4 | G8
D3D | G4_B4A4 | G8

@@@ Tune index: 8236
